assets/touch-one.svg

<svg xmlns="http://www.w3.org/2000/svg" viewBox="0 0 600 600" width="800" height="800"><path d="M0 0h600v600H0V0z" fill="#111"/><path d="M256.79 14.19c10.2 6.84 20.42 13.61 30.64 20.41 3.27 2.08 5.31 5.46 5.25 9.4.01 5.36-4.34 10-9.66 10.46-3.65.38-6.39-1.27-9.26-3.22-4.56-3.18-9.39-6.04-13.77-9.47.02 20.43 0 40.85.01 61.27.18 5.51-5.81 9.81-11.01 9.31-4.04-.2-9.42-3.83-9-8.32.03-20.75 0-41.51.01-62.26-5.2 3.94-10.78 7.42-16.22 11.04-4.77 3.12-11.52 1.78-14.58-3.05-3.22-4.81-1.98-11.46 2.83-14.68 10.36-7.01 20.82-13.92 31.21-20.87 4.34-3.04 9.21-3.11 13.55-.02zM284.74 144.28c5.77 7.29 8.81 16.43 8.71 25.72.04 31.08.01 62.84-.01 93.98 8.43-4.49 18.09-6.4 27.57-5.01 15.42 2.29 28.71 13.16 34.15 27.75 7.98-5.03 17.42-7.45 26.84-6.75 16.57 1.19 31.37 12.56 37.16 28.08 11.74-7.46 26.73-9 39.64-3.68 15.55 6.27 26.72 21.68 26.64 38.63.04 37.31 0 74.68.02 112 .04 9.74-.61 19.44-2.62 29-4.07 20.07-13.3 38.73-26.22 54.58-15.41 19.1-35.84 34.4-57.77 45.24-2.89 1.36-5.54 2.86-8.82 2.84-40.01.02-80.02 0-120.03.01-5.47.06-10.82-.84-16.01-2.57-12.73-4.27-23.46-12.87-32.59-22.51-12.04-12.79-22.03-28.02-30.83-43.16-18.95-32.82-33.75-67.7-50.05-101.96-5.76-11.95-11.43-24.14-18.5-35.49-2.86-4.63-5.97-8.6-8.31-13.51-4.13-8.52-6.03-18.05-4.74-27.47 1.2-9.23 5.75-18.12 12.73-24.29 13.28-12 34.41-14.37 49.91-5.33 5.18 2.89 8.71 7.03 12.74 11.26 7.91 8.34 15.85 16.66 23.77 24.99 0-58.21.01-116.42 0-174.63-.04-4.75.33-9.44 1.81-13.98 4.37-14.31 16.73-25.52 31.27-28.84 15.9-3.79 33.44 2.22 43.54 15.1z" fill="#ccc"/><path d="M387.98 144.82c4.03-.12 7.73 1.93 9.88 5.33 6.95 10.41 13.95 20.81 20.83 31.26 2.52 3.68 2.57 8.51.04 12.2-6.64 10.05-13.4 20.04-20 30.11-2.29 3.61-4.48 5.46-8.65 6.59l-3.12-.03c-2.68-1-5.14-1.97-6.87-4.39-2.24-2.73-2.09-6.43-1.56-9.72.64-2 2.05-3.83 3.19-5.59 3.09-4.41 5.65-8.94 9.13-13.04-20.28-.09-40.57-.03-60.85-.03-5.31.57-10.37-5.32-9.72-10.49-.24-4.39 2.41-7.02 5.61-9.51 21.66-.05 43.31.05 64.97-.05-3.87-4.65-6.91-9.97-10.39-14.93-2.58-3.2-2.86-7.79-1.52-11.53 1.7-3.63 5.17-5.62 9.03-6.18zM109.94 144.77c1.03-.04 2.06-.08 3.1-.1 3.76 1.33 6.94 3.21 8.35 7.17.8 3.79.59 7.53-1.85 10.69-3.48 4.95-6.48 10.3-10.39 14.9 20.28.16 40.57.04 60.86.06 5.31-.6 10.34 5.34 9.71 10.49.24 4.39-2.41 7.02-5.61 9.51-21.66.07-43.32-.1-64.97.08 3.23 3.72 5.58 7.89 8.38 11.91 1.31 1.99 2.83 3.98 3.8 6.16.9 4.03.83 8.29-2.37 11.31-3 3.13-6.98 3.26-11.02 2.57-3.03-.79-5-3.46-6.67-5.93-6.6-10.02-13.37-19.96-19.95-30-2.53-3.69-2.57-8.51-.04-12.21 6.93-10.43 13.91-20.87 20.85-31.33 2.12-3.01 4.22-4.45 7.82-5.28z" fill="#ccc"/><path d="M253.01 149.51c9.45.87 18.5 8.67 18.96 18.47.17 43.7.14 87.34.14 131.04-.12 3.98 1.67 7.72 5.11 9.79 4.81 2.99 11.34 1.52 14.42-3.2 2.35-3.34 1.38-7.44 2.69-11.42 2.85-8.65 11.66-14.42 20.67-14.22 10.52-.01 20.4 8.31 21.02 19.03.28 7.6-.11 15.23.16 22.83.25 4.41 3.37 8.22 7.6 9.44 5.23 1.61 11.13-1.33 12.96-6.49 1-3.23.55-6.73 1.84-10 3.25-8.59 12.34-14.06 21.42-13.48 9.99.43 19.28 8.53 20 18.69.33 7.66-.1 15.37.19 23.04.14 3.32 1.96 6.27 4.64 8.16 4.22 2.96 10.33 2.25 13.74-1.63 2.38-2.43 2.72-5.34 2.98-8.57.53-7.52 5.83-13.83 12.64-16.69 7.14-3.08 15.64-1.98 21.79 2.74 4.98 3.78 8.16 9.64 8.11 15.95.02 38.66.04 77.36-.01 116.01-.06 20.47-6.28 40.46-17.63 57.46-12.9 19.3-31.82 34.9-52.19 45.8-2.53 1.18-5.4 3.27-8.25 3.08-38.67-.02-77.34 0-116.02 0-9.32.12-17.8-4.8-24.8-10.53-11.85-9.9-21.35-23.46-29.61-36.39-21.71-34.89-37.93-73.36-55.5-110.5-7.49-15.47-14.47-30.51-24.26-44.76-4.41-6.46-7.25-14.9-5.28-22.69 2.39-9.27 12.11-15.37 21.46-14.69 4.82.31 9.06 2.35 12.34 5.87 15.28 16.07 30.61 32.06 45.86 48.15 2.31 2.54 5.3 4.21 8.8 4.1 4.36.11 8.42-3 9.79-7.07.43-2.89.16-5.91.21-8.83 0-65-.01-130.01.01-195.01.23-4.53.85-9.69 3.44-13.53 4.33-6.85 12.48-10.86 20.56-9.95z" fill="#111"/></svg>

<?xml version="1.0" encoding="UTF-8" standalone="no"?>
<!DOCTYPE svg PUBLIC "-//W3C//DTD SVG 1.1//EN" "http://www.w3.org/Graphics/SVG/1.1/DTD/svg11.dtd">
<svg xmlns="http://www.w3.org/2000/svg" version="1.1" viewBox="0 0 600 600" width="600.0pt" height="600.0pt">
<path d="M 0.00 0.00 L 600.00 0.00 L 600.00 600.00 L 0.00 600.00 L 0.00 0.00 Z" fill="#111" />
<path d="M 256.79 14.19 C 266.99 21.03 277.21 27.80 287.43 34.60 C 290.70 36.68 292.74 40.06 292.68 44.00 C 292.69 49.36 288.34 54.00 283.02 54.46 C 279.37 54.84 276.63 53.19 273.76 51.24 C 269.20 48.06 264.37 45.20 259.99 41.77 C 260.01 62.20 259.99 82.62 260.00 103.04 C 260.18 108.55 254.19 112.85 248.99 112.35 C 244.95 112.15 239.57 108.52 239.99 104.03 C 240.02 83.28 239.99 62.52 240.00 41.77 C 234.80 45.71 229.22 49.19 223.78 52.81 C 219.01 55.93 212.26 54.59 209.20 49.76 C 205.98 44.95 207.22 38.30 212.03 35.08 C 222.39 28.07 232.85 21.16 243.24 14.21 C 247.58 11.17 252.45 11.10 256.79 14.19 Z" fill="#ccc" />
<path d="M 284.74 144.28 C 290.51 151.57 293.55 160.71 293.45 170.00 C 293.49 201.08 293.46 232.84 293.44 263.98 C 301.87 259.49 311.53 257.58 321.01 258.97 C 336.43 261.26 349.72 272.13 355.16 286.72 C 363.14 281.69 372.58 279.27 382.00 279.97 C 398.57 281.16 413.37 292.53 419.16 308.05 C 430.90 300.59 445.89 299.05 458.80 304.37 C 474.35 310.64 485.52 326.05 485.44 343.00 C 485.48 380.31 485.44 417.68 485.46 455.00 C 485.50 464.74 484.85 474.44 482.84 484.00 C 478.77 504.07 469.54 522.73 456.62 538.58 C 441.21 557.68 420.78 572.98 398.85 583.82 C 395.96 585.18 393.31 586.68 390.03 586.66 C 350.02 586.68 310.01 586.66 270.00 586.67 C 264.53 586.73 259.18 585.83 253.99 584.10 C 241.26 579.83 230.53 571.23 221.40 561.59 C 209.36 548.80 199.37 533.57 190.57 518.43 C 171.62 485.61 156.82 450.73 140.52 416.47 C 134.76 404.52 129.09 392.33 122.02 380.98 C 119.16 376.35 116.05 372.38 113.71 367.47 C 109.58 358.95 107.68 349.42 108.97 340.00 C 110.17 330.77 114.72 321.88 121.70 315.71 C 134.98 303.71 156.11 301.34 171.61 310.38 C 176.79 313.27 180.32 317.41 184.35 321.64 C 192.26 329.98 200.20 338.30 208.12 346.63 C 208.12 288.42 208.13 230.21 208.12 172.00 C 208.08 167.25 208.45 162.56 209.93 158.02 C 214.30 143.71 226.66 132.50 241.20 129.18 C 257.10 125.39 274.64 131.40 284.74 144.28 Z" fill="#ccc" />
<path d="M 387.98 144.82 C 392.01 144.70 395.71 146.75 397.86 150.15 C 404.81 160.56 411.81 170.96 418.69 181.41 C 421.21 185.09 421.26 189.92 418.73 193.61 C 412.09 203.66 405.33 213.65 398.73 223.72 C 396.44 227.33 394.25 229.18 390.08 230.31 C 389.04 230.30 388.00 230.29 386.96 230.28 C 384.28 229.28 381.82 228.31 380.09 225.89 C 377.85 223.16 378.00 219.46 378.53 216.17 C 379.17 214.17 380.58 212.34 381.72 210.58 C 384.81 206.17 387.37 201.64 390.85 197.54 C 370.57 197.45 350.28 197.51 330.00 197.51 C 324.69 198.08 319.63 192.19 320.28 187.02 C 320.04 182.63 322.69 180.00 325.89 177.51 C 347.55 177.46 369.20 177.56 390.86 177.46 C 386.99 172.81 383.95 167.49 380.47 162.53 C 377.89 159.33 377.61 154.74 378.95 151.00 C 380.65 147.37 384.12 145.38 387.98 144.82 Z" fill="#ccc" />
<path d="M 109.94 144.77 C 110.97 144.73 112.00 144.69 113.04 144.67 C 116.80 146.00 119.98 147.88 121.39 151.84 C 122.19 155.63 121.98 159.37 119.54 162.53 C 116.06 167.48 113.06 172.83 109.15 177.43 C 129.43 177.59 149.72 177.47 170.01 177.49 C 175.32 176.89 180.35 182.83 179.72 187.98 C 179.96 192.37 177.31 195.00 174.11 197.49 C 152.45 197.56 130.79 197.39 109.14 197.57 C 112.37 201.29 114.72 205.46 117.52 209.48 C 118.83 211.47 120.35 213.46 121.32 215.64 C 122.22 219.67 122.15 223.93 118.95 226.95 C 115.95 230.08 111.97 230.21 107.93 229.52 C 104.90 228.73 102.93 226.06 101.26 223.59 C 94.66 213.57 87.89 203.63 81.31 193.59 C 78.78 189.90 78.74 185.08 81.27 181.38 C 88.20 170.95 95.18 160.51 102.12 150.05 C 104.24 147.04 106.34 145.60 109.94 144.77 Z" fill="#ccc" />
<path d="M 253.01 149.51 C 262.46 150.38 271.51 158.18 271.97 167.98 C 272.14 211.68 272.11 255.32 272.11 299.02 C 271.99 303.00 273.78 306.74 277.22 308.81 C 282.03 311.80 288.56 310.33 291.64 305.61 C 293.99 302.27 293.02 298.17 294.33 294.19 C 297.18 285.54 305.99 279.77 315.00 279.97 C 325.52 279.96 335.40 288.28 336.02 299.00 C 336.30 306.60 335.91 314.23 336.18 321.83 C 336.43 326.24 339.55 330.05 343.78 331.27 C 349.01 332.88 354.91 329.94 356.74 324.78 C 357.74 321.55 357.29 318.05 358.58 314.78 C 361.83 306.19 370.92 300.72 380.00 301.30 C 389.99 301.73 399.28 309.83 400.00 319.99 C 400.33 327.65 399.90 335.36 400.19 343.03 C 400.33 346.35 402.15 349.30 404.83 351.19 C 409.05 354.15 415.16 353.44 418.57 349.56 C 420.95 347.13 421.29 344.22 421.55 340.99 C 422.08 333.47 427.38 327.16 434.19 324.30 C 441.33 321.22 449.83 322.32 455.98 327.04 C 460.96 330.82 464.14 336.68 464.09 342.99 C 464.11 381.65 464.13 420.35 464.08 459.00 C 464.02 479.47 457.80 499.46 446.45 516.46 C 433.55 535.76 414.63 551.36 394.26 562.26 C 391.73 563.44 388.86 565.53 386.01 565.34 C 347.34 565.32 308.67 565.34 269.99 565.34 C 260.67 565.46 252.19 560.54 245.19 554.81 C 233.34 544.91 223.84 531.35 215.58 518.42 C 193.87 483.53 177.65 445.06 160.08 407.92 C 152.59 392.45 145.61 377.41 135.82 363.16 C 131.41 356.70 128.57 348.26 130.54 340.47 C 132.93 331.20 142.65 325.10 152.00 325.78 C 156.82 326.09 161.06 328.13 164.34 331.65 C 179.62 347.72 194.95 363.71 210.20 379.80 C 212.51 382.34 215.50 384.01 219.00 383.90 C 223.36 384.01 227.42 380.90 228.79 376.83 C 229.22 373.94 228.95 370.92 229.00 368.00 C 229.00 303.00 228.99 237.99 229.01 172.99 C 229.24 168.46 229.86 163.30 232.45 159.46 C 236.78 152.61 244.93 148.60 253.01 149.51 Z" fill="#111" />
</svg>
